src/assets/images/bitkeep.svg

<svg width="1024" height="1024" fill="none" xmlns="http://www.w3.org/2000/svg"><path fill-rule="evenodd" clip-rule="evenodd" d="M512 0c282.8 0 512 229.2 512 512s-229.2 512-512 512S0 794.8 0 512C0 229.3 229.2 0 512 0z" fill="#7524F9"/><path fill-rule="evenodd" clip-rule="evenodd" d="M830.4 354.3v36.2c0 7.1-3.8 13.7-9.9 17.2L703.9 475 808 534.9c13.9 8 22.4 22.8 22.4 38.8v96.4c0 16-8.6 30.8-22.5 38.8L534.1 866c-13.8 7.9-30.8 7.9-44.7-.1l-89.6-51.8c-6.6-3.8-6.6-13.4 0-17.2l295.8-170.3c3.3-1.9 3.3-6.7 0-8.6l-109.9-63.5c-6.1-3.6-13.7-3.6-19.9 0L265.2 727.7c-4.6 2.6-10.3 2.7-14.9 0l-34-19.5c-13.9-8-22.5-22.8-22.5-38.9v-39.5c0-5.3 2.9-10.3 7.5-12.9l430.9-247.6c3.3-1.9 3.3-6.7 0-8.6l-110-63.7c-6.1-3.6-13.7-3.6-19.9 0L208.7 465.9c-6.6 3.8-14.9-1-14.9-8.6V353.8c0-16 8.6-30.8 22.5-38.8l273.8-157.1c13.8-7.9 30.8-7.9 44.6 0l273.2 157.6c13.9 8.1 22.5 22.8 22.5 38.8z" fill="#fff"/></svg>

<svg width="1024" height="1024" viewBox="0 0 1024 1024" fill="none" xmlns="http://www.w3.org/2000/svg">
<path fill-rule="evenodd" clip-rule="evenodd" d="M512 0C794.8 0 1024 229.2 1024 512C1024 794.8 794.8 1024 512 1024C229.2 1024 0 794.8 0 512C0 229.3 229.2 0 512 0Z" fill="#7524F9"/>
<path fill-rule="evenodd" clip-rule="evenodd" d="M830.4 354.3V390.5C830.4 397.6 826.6 404.2 820.5 407.7L703.9 475L808 534.9C821.9 542.9 830.4 557.7 830.4 573.7V670.1C830.4 686.1 821.8 700.9 807.9 708.9L534.1 866C520.3 873.9 503.3 873.9 489.4 865.9L399.8 814.1C393.2 810.3 393.2 800.7 399.8 796.9L695.6 626.6C698.9 624.7 698.9 619.9 695.6 618L585.7 554.5C579.6 550.9 572 550.9 565.8 554.5L265.2 727.7C260.6 730.3 254.9 730.4 250.3 727.7L216.3 708.2C202.4 700.2 193.8 685.4 193.8 669.3V629.8C193.8 624.5 196.7 619.5 201.3 616.9L632.2 369.3C635.5 367.4 635.5 362.6 632.2 360.7L522.2 297C516.1 293.4 508.5 293.4 502.3 297L208.7 465.9C202.1 469.7 193.8 464.9 193.8 457.3V353.8C193.8 337.8 202.4 323 216.3 315L490.1 157.9C503.9 150 520.9 150 534.7 157.9L807.9 315.5C821.8 323.6 830.4 338.3 830.4 354.3Z" fill="white"/>
</svg>
